X:1
T:The Back of the Haggard  "137 bmp"
M:C|
L:1/8
Q:80
C:arr. Kent Hiestand
S:Polka
K:HP
|: {g}A{d}B3/4{e}A/4{d}GA | \
{Gdc}dA{gfg}f2 | \
{g}fe3/4f/4{gf}ge |
{g}d3/4c/4{g}d/4e3/4{gfg}f2 | \
{g}A{d}B3/4{e}A/4{d}GA | \
{Gdc}dA{gfg}f2 |
{g}fe3/4f/4{gf}gc | \
{gef}ed{gdG}d2 :: \
{g}ef3/4e/4{gcd}ce |
{ag}ac{gef}e2 | \
{e}ef3/4e/4{Gdc}dB | \
{gfg}fe{gcd}c2 |
{g}ef3/4e/4{gcd}ce | \
{ag}ac{gef}e2 | \
{e}ef3/4e/4{Gdc}dB |
{gBd}B{G}A{GAG}A2 :: \
{g}Ac{G}ce | \
{A}ef3/4e/4{gcd}c2 |
{g}ef3/4e/4{Gdc}dB | \
{gfg}fe{gcd}c2 | \
{g}Ac{G}ce |
{A}ef3/4e/4{gcd}c2 | \
{g}ef3/4e/4{Gdc}dB | \
{gBd}B{G}A{GAG}A2 :|
